svgs/thin/thumbs-down.svg

<svg xmlns="http://www.w3.org/2000/svg" viewBox="0 0 512 512"><!--! Font Awesome Pro 6.3.0 by @fontawesome - https://fontawesome.com License - https://fontawesome.com/license (Commercial License) Copyright 2023 Fonticons, Inc. --><path d="M128 288V64.03C128 46.36 113.7 32.04 96 32.04H32c-17.67 0-32 14.32-32 31.1v223.1c0 17.67 14.33 31.1 32 31.1h64C113.7 320 128 305.7 128 288zM112 288c0 8.822-7.178 16-16 16H32C23.18 304 16 296.8 16 288V64c0-8.822 7.178-16 16-16h64c8.822 0 16 7.178 16 16V288zM475 231.9c4.203-7.719 6.453-16.36 6.453-25.2c0-22.23-13.81-41.75-34-49.66c2.281-5.969 3.453-12.25 3.453-18.55c0-20.81-12.12-39.38-30.8-48.13c.1719-1.656 .25-3.297 .25-4.938C420.4 55.98 396.2 32 366.5 32h-56.03C276 32 241.8 43.33 214.1 63.89L163.6 97.33C161.3 98.87 160 101.4 160 104c0 4.421 3.6 8.001 8.003 8.001c1.514 0 3.049-.4324 4.419-1.342l50.91-33.69C248.6 58.2 279.4 48 310.5 48h56.03c20.84 0 37.81 16.81 37.81 37.47c0 5.5-1.186 7.832-1.186 10.01c0 3.403 2.177 6.524 5.546 7.602c15.66 5.047 26.19 19.3 26.19 35.45c0 14.01-6.812 18.44-6.812 23.58c0 4.727 3.726 7.352 6.547 7.861c17.86 3.312 30.81 18.78 30.81 36.77c0 19.49-12.15 23.38-12.15 30.63c0 4.16 3.223 7.682 7.458 7.983C480.5 246.7 496 263 496 282.5C496 303.2 479 320 458.2 320h-143.5c-4.265 0-7.997 3.432-7.997 8.013c0 1.549 .4486 3.091 1.341 4.425l5.328 8C334.1 376.4 344 414 344 426.1C344 444.7 329.3 464 304.8 464c-51.82 0-19.32-70.26-98.31-133.4L172.8 305.6C171.3 304.5 169.7 303.1 168 303.1c-2.588 0-8.012 2.043-8.012 7.995c0 2.447 1.121 4.863 3.236 6.428l33.47 24.81C272.4 403.8 237.1 480 304.9 480C339.4 480 360 452.6 360 426.1c0-15.16-9.781-53.63-30.72-90.08h128.9C487.9 336 512 312 512 282.5C512 259.2 496.5 239 475 231.9z"/></svg>

<svg xmlns="http://www.w3.org/2000/svg" viewBox="0 0 512 512"><!-- Font Awesome Pro 6.0.0-alpha2 by @fontawesome - https://fontawesome.com License - https://fontawesome.com/license (Commercial License) --><path d="M128 288V64C128 46.326 113.674 32 96 32H32C14.326 32 0 46.326 0 64V288C0 305.672 14.326 320 32 320H96C113.674 320 128 305.672 128 288ZM112 288C112 296.822 104.822 304 96 304H32C23.178 304 16 296.822 16 288V64C16 55.178 23.178 48 32 48H96C104.822 48 112 55.178 112 64V288ZM475 231.938C479.203 224.219 481.453 215.578 481.453 206.734C481.453 184.5 467.641 164.984 447.453 157.078C449.734 151.109 450.906 144.828 450.906 138.531C450.906 117.719 438.781 99.156 420.109 90.406C420.281 88.75 420.359 87.109 420.359 85.469C420.359 55.984 396.219 32 366.547 32H310.516C276 32 241.766 43.328 214.125 63.891L163.578 97.328C161.26 98.867 160 101.415 160 104.013C160 108.434 163.601 112.013 168.003 112.013C169.517 112.013 171.052 111.581 172.422 110.672L223.328 76.984C248.578 58.203 279.422 48 310.516 48H366.547C387.391 48 404.359 64.812 404.359 85.469C404.359 90.969 403.173 93.301 403.173 95.476C403.173 98.879 405.35 102 408.719 103.078C424.375 108.125 434.906 122.375 434.906 138.531C434.906 152.544 428.094 156.976 428.094 162.107C428.094 166.834 431.82 169.459 434.641 169.969C452.5 173.281 465.453 188.75 465.453 206.734C465.453 226.229 453.308 230.115 453.308 237.36C453.308 241.52 456.53 245.043 460.766 245.344C480.531 246.688 496 263.031 496 282.531C496 303.188 479.031 320 458.188 320H314.672C310.406 320 306.675 323.432 306.675 328.013C306.675 329.562 307.123 331.104 308.016 332.437L313.344 340.437C334.953 376.422 344 414.016 344 426.078C344 444.719 329.328 464 304.781 464C252.966 464 285.459 393.737 206.469 330.562L172.766 305.578C171.334 304.512 169.665 303.999 168.011 303.999C165.422 303.999 159.999 306.042 159.999 311.994C159.999 314.441 161.119 316.857 163.234 318.422L196.703 343.234C272.386 403.781 236.99 480 304.781 480C339.344 480 360 452.578 360 426.078C360 410.922 350.219 372.453 329.281 336H458.188C487.859 336 512 312.016 512 282.531C512 259.172 496.547 239 475 231.938Z"/></svg>
